images/50175085.svg

<?xml version="1.0" encoding="UTF-8"?>
<svg xmlns="http://www.w3.org/2000/svg" xmlns:xlink="http://www.w3.org/1999/xlink" width="300pt" height="300pt" viewBox="0 0 300 300" version="1.1">
<defs>
<g>
<symbol overflow="visible" id="glyph0-0">
<path style="stroke:none;" d="M 0.453125 1.59375 L 0.453125 -6.34375 L 4.953125 -6.34375 L 4.953125 1.59375 Z M 0.953125 1.09375 L 4.453125 1.09375 L 4.453125 -5.84375 L 0.953125 -5.84375 Z M 0.953125 1.09375 "/>
</symbol>
<symbol overflow="visible" id="glyph0-1">
<path style="stroke:none;" d="M 0.890625 -6.5625 L 2.078125 -6.5625 L 4.984375 -1.078125 L 4.984375 -6.5625 L 5.84375 -6.5625 L 5.84375 0 L 4.65625 0 L 1.75 -5.484375 L 1.75 0 L 0.890625 0 Z M 0.890625 -6.5625 "/>
</symbol>
<symbol overflow="visible" id="glyph0-2">
<path style="stroke:none;" d="M 0.890625 -6.5625 L 1.765625 -6.5625 L 1.765625 -3.875 L 5 -3.875 L 5 -6.5625 L 5.890625 -6.5625 L 5.890625 0 L 5 0 L 5 -3.125 L 1.765625 -3.125 L 1.765625 0 L 0.890625 0 Z M 0.890625 -6.5625 "/>
</symbol>
<symbol overflow="visible" id="glyph0-3">
<path style="stroke:none;" d="M 3.546875 -5.953125 C 2.898438 -5.953125 2.382812 -5.710938 2 -5.234375 C 1.625 -4.753906 1.4375 -4.101562 1.4375 -3.28125 C 1.4375 -2.445312 1.625 -1.789062 2 -1.3125 C 2.382812 -0.832031 2.898438 -0.59375 3.546875 -0.59375 C 4.191406 -0.59375 4.703125 -0.832031 5.078125 -1.3125 C 5.453125 -1.789062 5.640625 -2.445312 5.640625 -3.28125 C 5.640625 -4.101562 5.453125 -4.753906 5.078125 -5.234375 C 4.703125 -5.710938 4.191406 -5.953125 3.546875 -5.953125 Z M 3.546875 -6.6875 C 4.460938 -6.6875 5.195312 -6.375 5.75 -5.75 C 6.300781 -5.132812 6.578125 -4.3125 6.578125 -3.28125 C 6.578125 -2.238281 6.300781 -1.410156 5.75 -0.796875 C 5.195312 -0.179688 4.460938 0.125 3.546875 0.125 C 2.617188 0.125 1.878906 -0.179688 1.328125 -0.796875 C 0.773438 -1.410156 0.5 -2.238281 0.5 -3.28125 C 0.5 -4.3125 0.773438 -5.132812 1.328125 -5.75 C 1.878906 -6.375 2.617188 -6.6875 3.546875 -6.6875 Z M 3.546875 -6.6875 "/>
</symbol>
<symbol overflow="visible" id="glyph1-0">
<path style="stroke:none;" d="M 0.40625 1.421875 L 0.40625 -5.640625 L 4.40625 -5.640625 L 4.40625 1.421875 Z M 0.84375 0.96875 L 3.953125 0.96875 L 3.953125 -5.1875 L 0.84375 -5.1875 Z M 0.84375 0.96875 "/>
</symbol>
<symbol overflow="visible" id="glyph1-1">
<path style="stroke:none;" d="M 3.6875 -5.015625 L 3.6875 -2.84375 L 5.859375 -2.84375 L 5.859375 -2.171875 L 3.6875 -2.171875 L 3.6875 0 L 3.03125 0 L 3.03125 -2.171875 L 0.84375 -2.171875 L 0.84375 -2.84375 L 3.03125 -2.84375 L 3.03125 -5.015625 Z M 3.6875 -5.015625 "/>
</symbol>
<symbol overflow="visible" id="glyph1-2">
<path style="stroke:none;" d="M 0.390625 -2.515625 L 2.5 -2.515625 L 2.5 -1.875 L 0.390625 -1.875 Z M 0.390625 -2.515625 "/>
</symbol>
</g>
</defs>
<g id="surface6701">
<rect x="0" y="0" width="300" height="300" style="fill:rgb(100%,100%,100%);fill-opacity:1;stroke:none;"/>
<path style=" stroke:none;fill-rule:nonzero;fill:rgb(0%,0%,0%);fill-opacity:1;" d="M 161.1875 161.113281 L 177.648438 147.46875 L 171.984375 142.660156 Z M 161.1875 161.113281 "/>
<path style="fill:none;stroke-width:1.2;stroke-linecap:butt;stroke-linejoin:miter;stroke:rgb(0%,0%,0%);stroke-opacity:1;stroke-miterlimit:10;" d="M 161.1875 161.113281 L 169.734375 180.351562 "/>
<path style="fill:none;stroke-width:1.2;stroke-linecap:butt;stroke-linejoin:miter;stroke:rgb(0%,0%,0%);stroke-opacity:1;stroke-miterlimit:10;" d="M 140.816406 155.796875 L 161.1875 161.113281 "/>
<path style="fill:none;stroke-width:1.2;stroke-linecap:butt;stroke-linejoin:miter;stroke:rgb(0%,0%,100%);stroke-opacity:1;stroke-miterlimit:10;" d="M 174.816406 145.0625 L 185.171875 146.953125 "/>
<path style="fill:none;stroke-width:1.2;stroke-linecap:butt;stroke-linejoin:miter;stroke:rgb(0%,0%,0%);stroke-opacity:1;stroke-miterlimit:10;" d="M 185.171875 146.953125 L 195.527344 148.839844 "/>
<path style="fill:none;stroke-width:1.2;stroke-linecap:butt;stroke-linejoin:miter;stroke:rgb(0%,0%,100%);stroke-opacity:1;stroke-miterlimit:10;" d="M 176 150.316406 L 184.285156 151.824219 "/>
<path style="fill:none;stroke-width:1.2;stroke-linecap:butt;stroke-linejoin:miter;stroke:rgb(0%,0%,0%);stroke-opacity:1;stroke-miterlimit:10;" d="M 184.285156 151.824219 L 192.570312 153.335938 "/>
<path style=" stroke:none;fill-rule:nonzero;fill:rgb(100%,100%,100%);fill-opacity:1;" d="M 164.816406 137.5625 L 185.816406 137.5625 L 185.816406 152.5625 L 164.816406 152.5625 Z M 164.816406 137.5625 "/>
<g style="fill:rgb(0%,0%,100%);fill-opacity:1;">
  <use xlink:href="#glyph0-1" x="164.816406" y="149.664062"/>
  <use xlink:href="#glyph0-2" x="171.793945" y="149.664062"/>
</g>
<g style="fill:rgb(0%,0%,100%);fill-opacity:1;">
  <use xlink:href="#glyph1-1" x="178.808594" y="144.78125"/>
</g>
<path style="fill:none;stroke-width:1.2;stroke-linecap:butt;stroke-linejoin:miter;stroke:rgb(0%,0%,0%);stroke-opacity:1;stroke-miterlimit:10;" d="M 195.527344 148.839844 L 209.15625 132.792969 "/>
<path style="fill:none;stroke-width:1.2;stroke-linecap:butt;stroke-linejoin:miter;stroke:rgb(0%,0%,0%);stroke-opacity:1;stroke-miterlimit:10;" d="M 195.527344 148.839844 L 199.070312 158.753906 "/>
<path style="fill:none;stroke-width:1.2;stroke-linecap:butt;stroke-linejoin:miter;stroke:rgb(0%,0%,100%);stroke-opacity:1;stroke-miterlimit:10;" d="M 199.070312 158.753906 L 202.613281 168.667969 "/>
<path style="fill:none;stroke-width:1.2;stroke-linecap:butt;stroke-linejoin:miter;stroke:rgb(0%,0%,0%);stroke-opacity:1;stroke-miterlimit:10;" d="M 209.15625 132.792969 L 205.613281 122.878906 "/>
<path style="fill:none;stroke-width:1.2;stroke-linecap:butt;stroke-linejoin:miter;stroke:rgb(0%,0%,100%);stroke-opacity:1;stroke-miterlimit:10;" d="M 205.613281 122.878906 L 202.070312 112.964844 "/>
<path style="fill:none;stroke-width:1.2;stroke-linecap:butt;stroke-linejoin:miter;stroke:rgb(0%,0%,100%);stroke-opacity:1;stroke-miterlimit:10;" d="M 202.070312 112.964844 L 208.886719 104.941406 "/>
<path style="fill:none;stroke-width:1.2;stroke-linecap:butt;stroke-linejoin:miter;stroke:rgb(100%,0%,0%);stroke-opacity:1;stroke-miterlimit:10;" d="M 208.886719 104.941406 L 215.699219 96.917969 "/>
<path style="fill:none;stroke-width:1.2;stroke-linecap:butt;stroke-linejoin:miter;stroke:rgb(0%,0%,100%);stroke-opacity:1;stroke-miterlimit:10;" d="M 202.515625 110.53125 L 192.160156 108.640625 "/>
<path style="fill:none;stroke-width:1.2;stroke-linecap:butt;stroke-linejoin:miter;stroke:rgb(100%,0%,0%);stroke-opacity:1;stroke-miterlimit:10;" d="M 192.160156 108.640625 L 181.804688 106.753906 "/>
<path style="fill:none;stroke-width:1.2;stroke-linecap:butt;stroke-linejoin:miter;stroke:rgb(0%,0%,100%);stroke-opacity:1;stroke-miterlimit:10;" d="M 201.625 115.402344 L 191.269531 113.515625 "/>
<path style="fill:none;stroke-width:1.2;stroke-linecap:butt;stroke-linejoin:miter;stroke:rgb(100%,0%,0%);stroke-opacity:1;stroke-miterlimit:10;" d="M 191.269531 113.515625 L 180.914062 111.625 "/>
<path style=" stroke:none;fill-rule:nonzero;fill:rgb(100%,100%,100%);fill-opacity:1;" d="M 195.070312 105.464844 L 209.070312 105.464844 L 209.070312 120.464844 L 195.070312 120.464844 Z M 195.070312 105.464844 "/>
<g style="fill:rgb(0%,0%,100%);fill-opacity:1;">
  <use xlink:href="#glyph0-1" x="195.070312" y="117.566406"/>
</g>
<g style="fill:rgb(0%,0%,100%);fill-opacity:1;">
  <use xlink:href="#glyph1-1" x="202.047852" y="112.683594"/>
</g>
<path style=" stroke:none;fill-rule:nonzero;fill:rgb(100%,100%,100%);fill-opacity:1;" d="M 210.699219 89.417969 L 221.699219 89.417969 L 221.699219 104.417969 L 210.699219 104.417969 Z M 210.699219 89.417969 "/>
<g style="fill:rgb(100%,0%,0%);fill-opacity:1;">
  <use xlink:href="#glyph0-3" x="210.699219" y="101.519531"/>
</g>
<g style="fill:rgb(100%,0%,0%);fill-opacity:1;">
  <use xlink:href="#glyph1-2" x="218.041016" y="96.636719"/>
</g>
<path style=" stroke:none;fill-rule:nonzero;fill:rgb(100%,100%,100%);fill-opacity:1;" d="M 173.359375 103.6875 L 181.359375 103.6875 L 181.359375 114.6875 L 173.359375 114.6875 Z M 173.359375 103.6875 "/>
<g style="fill:rgb(100%,0%,0%);fill-opacity:1;">
  <use xlink:href="#glyph0-3" x="173.359375" y="112.350586"/>
</g>
<path style="fill:none;stroke-width:1.2;stroke-linecap:butt;stroke-linejoin:miter;stroke:rgb(0%,0%,100%);stroke-opacity:1;stroke-miterlimit:10;" d="M 202.613281 168.667969 L 212.96875 170.554688 "/>
<path style="fill:none;stroke-width:1.2;stroke-linecap:butt;stroke-linejoin:miter;stroke:rgb(0%,0%,0%);stroke-opacity:1;stroke-miterlimit:10;" d="M 212.96875 170.554688 L 223.324219 172.445312 "/>
<path style=" stroke:none;fill-rule:nonzero;fill:rgb(100%,100%,100%);fill-opacity:1;" d="M 195.613281 163.167969 L 209.613281 163.167969 L 209.613281 174.167969 L 195.613281 174.167969 Z M 195.613281 163.167969 "/>
<g style="fill:rgb(0%,0%,100%);fill-opacity:1;">
  <use xlink:href="#glyph0-1" x="195.613281" y="171.831055"/>
  <use xlink:href="#glyph0-2" x="202.59082" y="171.831055"/>
</g>
<path style="fill:none;stroke-width:1.2;stroke-linecap:butt;stroke-linejoin:miter;stroke:rgb(0%,0%,0%);stroke-opacity:1;stroke-miterlimit:10;" d="M 223.324219 172.445312 L 230.410156 192.269531 "/>
<path style="fill:none;stroke-width:1.2;stroke-linecap:butt;stroke-linejoin:miter;stroke:rgb(0%,0%,0%);stroke-opacity:1;stroke-miterlimit:10;" d="M 228.699219 172.757812 L 234.367188 188.621094 "/>
<path style="fill:none;stroke-width:1.2;stroke-linecap:butt;stroke-linejoin:miter;stroke:rgb(0%,0%,0%);stroke-opacity:1;stroke-miterlimit:10;" d="M 236.953125 156.394531 L 223.324219 172.445312 "/>
<path style="fill:none;stroke-width:1.2;stroke-linecap:butt;stroke-linejoin:miter;stroke:rgb(0%,0%,0%);stroke-opacity:1;stroke-miterlimit:10;" d="M 230.410156 192.269531 L 251.121094 196.046875 "/>
<path style="fill:none;stroke-width:1.2;stroke-linecap:butt;stroke-linejoin:miter;stroke:rgb(0%,0%,0%);stroke-opacity:1;stroke-miterlimit:10;" d="M 251.121094 196.046875 L 264.75 180 "/>
<path style="fill:none;stroke-width:1.2;stroke-linecap:butt;stroke-linejoin:miter;stroke:rgb(0%,0%,0%);stroke-opacity:1;stroke-miterlimit:10;" d="M 248.710938 191.234375 L 259.609375 178.398438 "/>
<path style="fill:none;stroke-width:1.2;stroke-linecap:butt;stroke-linejoin:miter;stroke:rgb(0%,0%,0%);stroke-opacity:1;stroke-miterlimit:10;" d="M 264.75 180 L 257.664062 160.171875 "/>
<path style="fill:none;stroke-width:1.2;stroke-linecap:butt;stroke-linejoin:miter;stroke:rgb(0%,0%,0%);stroke-opacity:1;stroke-miterlimit:10;" d="M 257.664062 160.171875 L 236.953125 156.394531 "/>
<path style="fill:none;stroke-width:1.2;stroke-linecap:butt;stroke-linejoin:miter;stroke:rgb(0%,0%,0%);stroke-opacity:1;stroke-miterlimit:10;" d="M 254.707031 164.667969 L 238.136719 161.648438 "/>
<path style="fill:none;stroke-width:1.2;stroke-linecap:butt;stroke-linejoin:miter;stroke:rgb(0%,0%,0%);stroke-opacity:1;stroke-miterlimit:10;" d="M 169.734375 180.351562 L 160.019531 199.03125 "/>
<path style="fill:none;stroke-width:1.2;stroke-linecap:butt;stroke-linejoin:miter;stroke:rgb(0%,0%,0%);stroke-opacity:1;stroke-miterlimit:10;" d="M 160.019531 199.03125 L 139.359375 203.082031 "/>
<path style="fill:none;stroke-width:1.2;stroke-linecap:butt;stroke-linejoin:miter;stroke:rgb(0%,0%,0%);stroke-opacity:1;stroke-miterlimit:10;" d="M 139.359375 203.082031 L 123.3125 189.457031 "/>
<path style="fill:none;stroke-width:1.2;stroke-linecap:butt;stroke-linejoin:miter;stroke:rgb(0%,0%,0%);stroke-opacity:1;stroke-miterlimit:10;" d="M 123.3125 189.457031 L 123.636719 178.933594 "/>
<path style="fill:none;stroke-width:1.2;stroke-linecap:butt;stroke-linejoin:miter;stroke:rgb(0%,0%,100%);stroke-opacity:1;stroke-miterlimit:10;" d="M 123.636719 178.933594 L 123.960938 168.410156 "/>
<path style="fill:none;stroke-width:1.2;stroke-linecap:butt;stroke-linejoin:miter;stroke:rgb(0%,0%,100%);stroke-opacity:1;stroke-miterlimit:10;" d="M 123.960938 168.410156 L 114.621094 163.554688 "/>
<path style="fill:none;stroke-width:1.2;stroke-linecap:butt;stroke-linejoin:miter;stroke:rgb(0%,0%,0%);stroke-opacity:1;stroke-miterlimit:10;" d="M 114.621094 163.554688 L 105.28125 158.695312 "/>
<path style="fill:none;stroke-width:1.2;stroke-linecap:butt;stroke-linejoin:miter;stroke:rgb(0%,0%,100%);stroke-opacity:1;stroke-miterlimit:10;" d="M 123.960938 168.410156 L 132.390625 162.105469 "/>
<path style="fill:none;stroke-width:1.2;stroke-linecap:butt;stroke-linejoin:miter;stroke:rgb(0%,0%,0%);stroke-opacity:1;stroke-miterlimit:10;" d="M 132.390625 162.105469 L 140.816406 155.796875 "/>
<path style=" stroke:none;fill-rule:nonzero;fill:rgb(100%,100%,100%);fill-opacity:1;" d="M 120.960938 162.910156 L 127.960938 162.910156 L 127.960938 173.910156 L 120.960938 173.910156 Z M 120.960938 162.910156 "/>
<g style="fill:rgb(0%,0%,100%);fill-opacity:1;">
  <use xlink:href="#glyph0-1" x="120.960938" y="171.573242"/>
</g>
<path style="fill:none;stroke-width:1.2;stroke-linecap:butt;stroke-linejoin:miter;stroke:rgb(0%,0%,0%);stroke-opacity:1;stroke-miterlimit:10;" d="M 105.28125 158.695312 L 87.53125 170.015625 "/>
<path style="fill:none;stroke-width:1.2;stroke-linecap:butt;stroke-linejoin:miter;stroke:rgb(0%,0%,0%);stroke-opacity:1;stroke-miterlimit:10;" d="M 85.054688 170.125 L 85.519531 180.640625 "/>
<path style="fill:none;stroke-width:1.2;stroke-linecap:butt;stroke-linejoin:miter;stroke:rgb(100%,0%,0%);stroke-opacity:1;stroke-miterlimit:10;" d="M 85.519531 180.640625 L 85.980469 191.15625 "/>
<path style="fill:none;stroke-width:1.2;stroke-linecap:butt;stroke-linejoin:miter;stroke:rgb(0%,0%,0%);stroke-opacity:1;stroke-miterlimit:10;" d="M 90.003906 169.90625 L 90.46875 180.421875 "/>
<path style="fill:none;stroke-width:1.2;stroke-linecap:butt;stroke-linejoin:miter;stroke:rgb(100%,0%,0%);stroke-opacity:1;stroke-miterlimit:10;" d="M 90.46875 180.421875 L 90.929688 190.941406 "/>
<path style="fill:none;stroke-width:1.2;stroke-linecap:butt;stroke-linejoin:miter;stroke:rgb(0%,0%,0%);stroke-opacity:1;stroke-miterlimit:10;" d="M 87.53125 170.015625 L 78.191406 165.160156 "/>
<path style="fill:none;stroke-width:1.2;stroke-linecap:butt;stroke-linejoin:miter;stroke:rgb(0%,0%,100%);stroke-opacity:1;stroke-miterlimit:10;" d="M 78.191406 165.160156 L 68.851562 160.300781 "/>
<path style=" stroke:none;fill-rule:nonzero;fill:rgb(100%,100%,100%);fill-opacity:1;" d="M 84.457031 185.550781 L 92.457031 185.550781 L 92.457031 196.550781 L 84.457031 196.550781 Z M 84.457031 185.550781 "/>
<g style="fill:rgb(100%,0%,0%);fill-opacity:1;">
  <use xlink:href="#glyph0-3" x="84.457031" y="194.213867"/>
</g>
<path style="fill:none;stroke-width:1.2;stroke-linecap:butt;stroke-linejoin:miter;stroke:rgb(0%,0%,100%);stroke-opacity:1;stroke-miterlimit:10;" d="M 68.851562 160.300781 L 59.429688 165 "/>
<path style="fill:none;stroke-width:1.2;stroke-linecap:butt;stroke-linejoin:miter;stroke:rgb(0%,0%,0%);stroke-opacity:1;stroke-miterlimit:10;" d="M 59.429688 165 L 50.011719 169.703125 "/>
<path style="fill:none;stroke-width:1.2;stroke-linecap:butt;stroke-linejoin:miter;stroke:rgb(0%,0%,0%);stroke-opacity:1;stroke-miterlimit:10;" d="M 65.730469 139.480469 L 67.289062 149.890625 "/>
<path style="fill:none;stroke-width:1.2;stroke-linecap:butt;stroke-linejoin:miter;stroke:rgb(0%,0%,100%);stroke-opacity:1;stroke-miterlimit:10;" d="M 67.289062 149.890625 L 68.851562 160.300781 "/>
<path style=" stroke:none;fill-rule:nonzero;fill:rgb(100%,100%,100%);fill-opacity:1;" d="M 65.851562 154.800781 L 72.851562 154.800781 L 72.851562 165.800781 L 65.851562 165.800781 Z M 65.851562 154.800781 "/>
<g style="fill:rgb(0%,0%,100%);fill-opacity:1;">
  <use xlink:href="#glyph0-1" x="65.851562" y="163.463867"/>
</g>
<path style="fill:none;stroke-width:1.2;stroke-linecap:butt;stroke-linejoin:miter;stroke:rgb(0%,0%,0%);stroke-opacity:1;stroke-miterlimit:10;" d="M 50.011719 169.703125 L 35.25 154.691406 "/>
<path style="fill:none;stroke-width:1.2;stroke-linecap:butt;stroke-linejoin:miter;stroke:rgb(0%,0%,0%);stroke-opacity:1;stroke-miterlimit:10;" d="M 35.25 154.691406 L 44.964844 136.011719 "/>
<path style="fill:none;stroke-width:1.2;stroke-linecap:butt;stroke-linejoin:miter;stroke:rgb(0%,0%,0%);stroke-opacity:1;stroke-miterlimit:10;" d="M 44.964844 136.011719 L 65.730469 139.480469 "/>
<path style="fill:none;stroke-width:1.2;stroke-linecap:butt;stroke-linejoin:miter;stroke:rgb(0%,0%,0%);stroke-opacity:1;stroke-miterlimit:10;" d="M 143.246094 155.320312 L 141.222656 144.992188 "/>
<path style="fill:none;stroke-width:1.2;stroke-linecap:butt;stroke-linejoin:miter;stroke:rgb(100%,0%,0%);stroke-opacity:1;stroke-miterlimit:10;" d="M 141.222656 144.992188 L 139.195312 134.660156 "/>
<path style="fill:none;stroke-width:1.2;stroke-linecap:butt;stroke-linejoin:miter;stroke:rgb(0%,0%,0%);stroke-opacity:1;stroke-miterlimit:10;" d="M 138.386719 156.273438 L 136.359375 145.945312 "/>
<path style="fill:none;stroke-width:1.2;stroke-linecap:butt;stroke-linejoin:miter;stroke:rgb(100%,0%,0%);stroke-opacity:1;stroke-miterlimit:10;" d="M 136.359375 145.945312 L 134.335938 135.613281 "/>
<path style=" stroke:none;fill-rule:nonzero;fill:rgb(100%,100%,100%);fill-opacity:1;" d="M 132.765625 129.636719 L 140.765625 129.636719 L 140.765625 140.636719 L 132.765625 140.636719 Z M 132.765625 129.636719 "/>
<g style="fill:rgb(100%,0%,0%);fill-opacity:1;">
  <use xlink:href="#glyph0-3" x="132.765625" y="138.299805"/>
</g>
</g>
</svg>

<svg xmlns="http://www.w3.org/2000/svg" xmlns:xlink="http://www.w3.org/1999/xlink" width="300pt" height="300pt" viewBox="0 0 300 300"><defs><symbol overflow="visible"><path d="M.453 1.594v-7.938h4.5v7.938zm.5-.5h3.5v-6.938h-3.5zm0 0"/></symbol><symbol overflow="visible" id="a"><path d="M.89-6.563H2.08l2.906 5.485v-5.484h.86V0H4.656L1.75-5.484V0H.89zm0 0"/></symbol><symbol overflow="visible" id="b"><path d="M.89-6.563h.876v2.688H5v-2.688h.89V0H5v-3.125H1.766V0H.89zm0 0"/></symbol><symbol overflow="visible" id="d"><path d="M3.547-5.953c-.65 0-1.164.242-1.547.72-.375.48-.563 1.13-.563 1.952 0 .835.188 1.49.563 1.967.383.48.898.72 1.547.72.644 0 1.156-.24 1.53-.72.376-.476.564-1.132.564-1.968 0-.822-.187-1.474-.562-1.954-.375-.477-.887-.72-1.53-.72zm0-.734c.914 0 1.648.312 2.203.937.55.617.828 1.438.828 2.47 0 1.042-.277 1.87-.828 2.483-.555.617-1.29.922-2.203.922-.93 0-1.668-.305-2.22-.922C.774-1.41.5-2.237.5-3.28c0-1.033.273-1.853.828-2.47.55-.625 1.29-.938 2.22-.938zm0 0"/></symbol><symbol overflow="visible"><path d="M.406 1.422V-5.64h4V1.42zM.844.97h3.11v-6.157H.843zm0 0"/></symbol><symbol overflow="visible" id="c"><path d="M3.688-5.016v2.172h2.17v.672H3.69V0H3.03v-2.172H.845v-.672H3.03v-2.172zm0 0"/></symbol><symbol overflow="visible" id="e"><path d="M.39-2.516H2.5v.64H.39zm0 0"/></symbol></defs><g><path fill="#fff" d="M0 0h300v300H0z"/><path d="M161.188 161.113l16.46-13.644-5.664-4.81zm0 0"/><path d="M161.188 161.113l8.546 19.24M140.816 155.797l20.37 5.316" stroke-width="1.2" stroke="#000" stroke-miterlimit="10" fill="none"/><path d="M174.816 145.063l10.356 1.89" stroke-width="1.2" stroke="#00f" stroke-miterlimit="10" fill="none"/><path d="M185.172 146.953l10.355 1.887" stroke-width="1.2" stroke="#000" stroke-miterlimit="10" fill="none"/><path d="M176 150.316l8.285 1.508" stroke-width="1.2" stroke="#00f" stroke-miterlimit="10" fill="none"/><path d="M184.285 151.824l8.285 1.512" stroke-width="1.2" stroke="#000" stroke-miterlimit="10" fill="none"/><path d="M164.816 137.563h21v15h-21zm0 0" fill="#fff"/><g fill="#00f"><use xlink:href="#a" x="164.816" y="149.664"/><use xlink:href="#b" x="171.794" y="149.664"/></g><use xlink:href="#c" x="178.809" y="144.781" fill="#00f"/><path d="M195.527 148.84l13.63-16.047M195.527 148.84l3.543 9.914" stroke-width="1.2" stroke="#000" stroke-miterlimit="10" fill="none"/><path d="M199.07 158.754l3.543 9.914" stroke-width="1.2" stroke="#00f" stroke-miterlimit="10" fill="none"/><path d="M209.156 132.793l-3.543-9.914" stroke-width="1.2" stroke="#000" stroke-miterlimit="10" fill="none"/><path d="M205.613 122.88l-3.543-9.915M202.07 112.965l6.817-8.024" stroke-width="1.2" stroke="#00f" stroke-miterlimit="10" fill="none"/><path d="M208.887 104.94l6.812-8.022" stroke-width="1.2" stroke="#f00" stroke-miterlimit="10" fill="none"/><path d="M202.516 110.53l-10.356-1.89" stroke-width="1.2" stroke="#00f" stroke-miterlimit="10" fill="none"/><path d="M192.16 108.64l-10.355-1.886" stroke-width="1.2" stroke="#f00" stroke-miterlimit="10" fill="none"/><path d="M201.625 115.402l-10.355-1.886" stroke-width="1.2" stroke="#00f" stroke-miterlimit="10" fill="none"/><path d="M191.27 113.516l-10.356-1.89" stroke-width="1.2" stroke="#f00" stroke-miterlimit="10" fill="none"/><path d="M195.07 105.465h14v15h-14zm0 0" fill="#fff"/><use xlink:href="#a" x="195.07" y="117.566" fill="#00f"/><use xlink:href="#c" x="202.048" y="112.684" fill="#00f"/><path d="M210.7 89.418h11v15h-11zm0 0" fill="#fff"/><use xlink:href="#d" x="210.699" y="101.52" fill="#f00"/><use xlink:href="#e" x="218.041" y="96.637" fill="#f00"/><path d="M173.36 103.688h8v11h-8zm0 0" fill="#fff"/><use xlink:href="#d" x="173.359" y="112.351" fill="#f00"/><path d="M202.613 168.668l10.356 1.887" stroke-width="1.2" stroke="#00f" stroke-miterlimit="10" fill="none"/><path d="M212.97 170.555l10.354 1.89" stroke-width="1.2" stroke="#000" stroke-miterlimit="10" fill="none"/><path d="M195.613 163.168h14v11h-14zm0 0" fill="#fff"/><g fill="#00f"><use xlink:href="#a" x="195.613" y="171.831"/><use xlink:href="#b" x="202.591" y="171.831"/></g><path d="M223.324 172.445l7.086 19.825M228.7 172.758l5.667 15.863M236.953 156.395l-13.63 16.05M230.41 192.27l20.71 3.777M251.12 196.047L264.75 180M248.71 191.234l10.9-12.836M264.75 180l-7.086-19.828M257.664 160.172l-20.71-3.777M254.707 164.668l-16.57-3.02M169.734 180.352l-9.714 18.68M160.02 199.03l-20.66 4.052M139.36 203.082l-16.048-13.625M123.313 189.457l.324-10.523" stroke-width="1.2" stroke="#000" stroke-miterlimit="10" fill="none"/><path d="M123.637 178.934l.324-10.524M123.96 168.41l-9.34-4.855" stroke-width="1.2" stroke="#00f" stroke-miterlimit="10" fill="none"/><path d="M114.62 163.555l-9.34-4.86" stroke-width="1.2" stroke="#000" stroke-miterlimit="10" fill="none"/><path d="M123.96 168.41l8.43-6.305" stroke-width="1.2" stroke="#00f" stroke-miterlimit="10" fill="none"/><path d="M132.39 162.105l8.426-6.308" stroke-width="1.2" stroke="#000" stroke-miterlimit="10" fill="none"/><path d="M120.96 162.91h7v11h-7zm0 0" fill="#fff"/><use xlink:href="#a" x="120.961" y="171.573" fill="#00f"/><path d="M105.28 158.695l-17.75 11.32M85.055 170.125l.465 10.516" stroke-width="1.2" stroke="#000" stroke-miterlimit="10" fill="none"/><path d="M85.52 180.64l.46 10.516" stroke-width="1.2" stroke="#f00" stroke-miterlimit="10" fill="none"/><path d="M90.004 169.906l.465 10.516" stroke-width="1.2" stroke="#000" stroke-miterlimit="10" fill="none"/><path d="M90.47 180.422l.46 10.52" stroke-width="1.2" stroke="#f00" stroke-miterlimit="10" fill="none"/><path d="M87.53 170.016l-9.34-4.856" stroke-width="1.2" stroke="#000" stroke-miterlimit="10" fill="none"/><path d="M78.19 165.16l-9.338-4.86" stroke-width="1.2" stroke="#00f" stroke-miterlimit="10" fill="none"/><path d="M84.457 185.55h8v11h-8zm0 0" fill="#fff"/><use xlink:href="#d" x="84.457" y="194.214" fill="#f00"/><path d="M68.852 160.3L59.43 165" stroke-width="1.2" stroke="#00f" stroke-miterlimit="10" fill="none"/><path d="M59.43 165l-9.418 4.703M65.73 139.48l1.56 10.41" stroke-width="1.2" stroke="#000" stroke-miterlimit="10" fill="none"/><path d="M67.29 149.89l1.562 10.41" stroke-width="1.2" stroke="#00f" stroke-miterlimit="10" fill="none"/><path d="M65.852 154.8h7v11h-7zm0 0" fill="#fff"/><use xlink:href="#a" x="65.852" y="163.464" fill="#00f"/><path d="M50.012 169.703L35.25 154.69M35.25 154.69l9.715-18.678M44.965 136.012l20.765 3.468M143.246 155.32l-2.023-10.328" stroke-width="1.2" stroke="#000" stroke-miterlimit="10" fill="none"/><path d="M141.223 144.992l-2.028-10.332" stroke-width="1.2" stroke="#f00" stroke-miterlimit="10" fill="none"/><path d="M138.387 156.273l-2.028-10.328" stroke-width="1.2" stroke="#000" stroke-miterlimit="10" fill="none"/><path d="M136.36 145.945l-2.024-10.332" stroke-width="1.2" stroke="#f00" stroke-miterlimit="10" fill="none"/><path d="M132.766 129.637h8v11h-8zm0 0" fill="#fff"/><use xlink:href="#d" x="132.766" y="138.3" fill="#f00"/></g></svg>
